X: 7
T: Father Kelly's
R: reel
M: 4/4
L: 1/8
K: Dmaj
|: "G"GA| "G"B2 GB AGEG |"G" DGGF G2AB | "C"c2 AB cBAG | FAAG "D"FD GA |
"G"B2 GB AGEG | "G"DGGF G2(3.A.B.c | "C"d2 Bd gdBd | "D"cAFA "G"G2 :|
|: "G"Bc | "G"d2 (3.B.c.d gdBd | d2 (3.B.c.d gdBd | "C"e2 ce agfe | "D"defg agfe |
"G"d2 (3.B.c.d gdBd | "G"d2 (3.B.c.d gdBd | "C"cBAc BAGB |"D" AGFA "G"G2 :|


Tune 791	Setting 13933

